X:1
T:Non hà doglia maggiore
T:Domenico Obizzi
T:Arietta
T:Source : Madrigali et arie a voce sola---Libro I ---Venetia---A.Vincenti---1627. Editor - André Vierendeels (04/03/16).
T:Notes : Original clefs : C1, F4 Editorial accidentals above the staff Dotted brackets indicate black notes Figures above the BC are notated in original print Note values have been halved Notation in original print :" Alfabeto d'ariette per la Chitarra alla Spagnola", realised by the editor. 
T:Non hà doglia maggiore
T:©
T:©
T:©
C:Domenico Obizzi
Z:©
%%score 1 { ( 2 3 ) | 4 }
L:1/8
Q:1/4=144
M:3/2
K:F
V:1 treble nm="Soprano" snm="S"
V:2 treble nm="BC" snm="BC"
V:3 treble 
V:4 bass 
V:1
 z4 G4 A4 | B4 c4 B4 | B4- A8 | G12 | G4 D4 E4 | F8 E4 | D6 E2 F4 | G4 G8 | F8 D4 | _E6 F2 G4 | %10
w: Non hà|do- glia mag-|gio- *|re,|trà quel- le|pe- ne'o-|gn'hor ch'è tor-|men- ta-|to un|cor in- a-|
w: Nar- ran-|te'i suoi la-|men- *|ti,|pa- le- sar|le sue|do- gli'e'i suoi|mar- ti-|ri, sol|con pian- ti'e|
w: Ohi- me|che non si|ve- *|de,|l'in- cen- dio|che nel|cor se- pol-|to gia-|ce, e|con ra- gion|
w: A- mor|deh per- che|puo- *|i,|che tan- to|fo- co'in|que- sto pet-|to'ac- cen-|di, di|giac- cio'il la-|
 G4 G6 ^F2- | G12 :: z8 F4 | G6 A2 B4 | c4 c8 | B4 d4 c4 | B4 A4 B4 | G12 | F8 F4 | G6 A2 B4 | %20
w: mo- ra- to,|_|un|cor in- a-|mo- ra-|to, che do-|ver tut- te|l'ho-|re, por-|ta- re'in o-|
w: so- spi- ri,|_|sol|con pian- ti'e|so- spi-|ri, e'un a-|cres- cer tor-|men-|ti, e|far nel pet-|
w: si sfa- ce,|_|e|con ra- gion|si sfa-|ce, quel che|pie- ta non|chie-|de, a'un|cor d'A- mor|
w: bro ren- di,|_|di|giac- cio'il la-|bro ren-|di, mu- ta|gl'ef- fet- ti|tuo-|i, e|per trar- mi|
 c4 A8 | G4 F4 E4 | F4 E4 F4 | D4 E4 F4 | G4 G8 | F8 D4 | E6 F2 G4 | G4 G6 ^F2 | %28
w: gni lo-|co, nel pro-|fon- do del|sen chiu- so'il|suo fo-|co, por-|tar in o-|gni lo- co,|
w: to'in- ter-|no, che sia|fiam- ma d'a-|mor, fiam- ma|d'A- ver-|no, e|far nel pet-|to'in- ter- no,|
w: ar- den-|te, tan- to'ar-|dir vi vo-|ria quan- to'ar-|door sen-|te, a'un|cor d'A- mor|ar- den- te,|
w: d'im- pac-|cio, fa la|boc- ca di|fo- co'il cor|di giac-|co, e|per trar- mi|d'im- pac- cio,|
"^-natural" G4 F4 E4 | F4 E4 F4 | D4 B4 A4 | B4 A4 B4 | G4 G8- | G4 c4 B4 | B4 A8 | G12 :| %36
w: _ nel pro-|fon- do del|sen, nel pro-|fon- do del|sen, chiu-|* so'il suo|fo- *|co.|
w: _ che sia|fiam- ma d'a-|mor, che sia|fiam- ma d'a-|mor, fiam-|* ma d'A-|ver- *|no.|
w: _ tan- to'ar-|dir vi vo-|ria tan- to'ar-|dir vi vo-|ria quan-|* to'ar- dir|sen- *|te.|
w: _ fa la|boc- ca di|fo- co, il|cor di giac-|co, il|_ cor di|giac- *|co.|
V:2
 B12 | G12- | G4 A8 | B12 | B12 | c12 | d8 c4 | d4 G8 | c8 B4 | G12 | G8 A4 | B12 :: B8 A4 | B12 | %14
 c12 | d12 | d12 | G12 | c8 A4 | B12 | G4 F8 | B12 | c12 | B8 A4 | B4 G8 | c8 =B4 | c12- | c4 A8 | %28
 B12 | c12 | F12 | B12 | G8 F4 | B4 c4 G4 | B4 d8 | =B12 :| %36
V:3
 D12 | D4 _E8 | C4 F8 | D12 | D12 | F12 | F8 A4 | F4 E8 | A8 D4 | _E12 | _E4 D8 | D12 :: D8 D4 | %13
 G12- | G4 A8 | F12 | F12 | E12 | A8 F4 | G12 | _E4 D8 | D12 | F12 | D8 C4 | D4 E8 | A8 D4 | G12 | %27
 _E4 D8 | D12 | A12 | D12 | F12 | _E8 D4 | _E12 | F4 G4 ^F4 | D12 :| %36
V:4
 G,,8 G,,4 | G,,4 C,8 | C,4 D,8 | G,,12 | G,,8 G,,4 | A,,8 A,,4 | B,,8 A,,4 | B,,4 C,8 | %8
 F,,8 G,,4 | C,8 C,4 | C,4 D,8 | G,,8 G,,4 :: G,,8 D,4 | _E,8 E,4 | _E,4 F,8 | B,,8 B,,4 | %16
 B,,8 B,,4 | C,8 C,4 | F,,8 D,4 | _E,8 E,4 | C,4 D,8 | G,,8 G,,4 | A,,8 A,,4 | B,,8 A,,4 | %24
 B,,4 C,8 | F,,8 G,,4 | C,8 C,4 | C,4 D,8 | G,,8 G,,4 | A,,8 A,,4 | B,,8 B,,4 | B,,8 B,,4 | %32
 C,8 D,4 | _E,4 C,8 | D,12 | G,,12 :| %36

